Newaita/actions/16/zoom-1-to-2.svg

<?xml version="1.0" encoding="UTF-8"?>
<svg xmlns="http://www.w3.org/2000/svg" xmlns:xlink="http://www.w3.org/1999/xlink" width="16pt" height="16pt" viewBox="0 0 16 16" version="1.1">
<g id="surface1">
<path style=" stroke:none;fill-rule:nonzero;fill:rgb(47.058824%,56.470591%,61.176473%);fill-opacity:1;" d="M 1.652344 0.785156 C 1.105469 0.785156 0.660156 1.230469 0.660156 1.777344 L 0.660156 3.433594 L 1.652344 3.433594 L 1.652344 2.441406 C 1.652344 2.074219 1.949219 1.777344 2.316406 1.777344 L 3.308594 1.777344 L 3.308594 0.785156 Z M 12.570312 0.785156 L 12.570312 1.777344 L 13.5625 1.777344 C 13.925781 1.777344 14.222656 2.074219 14.222656 2.441406 L 14.222656 3.433594 L 15.214844 3.433594 L 15.214844 1.777344 C 15.214844 1.230469 14.773438 0.785156 14.222656 0.785156 Z M 0.660156 12.695312 L 0.660156 14.347656 C 0.660156 14.898438 1.105469 15.339844 1.652344 15.339844 L 3.308594 15.339844 L 3.308594 14.347656 L 2.316406 14.347656 C 1.949219 14.347656 1.652344 14.050781 1.652344 13.6875 L 1.652344 12.695312 Z M 14.222656 12.695312 L 14.222656 13.6875 C 14.222656 14.050781 13.925781 14.347656 13.5625 14.347656 L 12.570312 14.347656 L 12.570312 15.339844 L 14.222656 15.339844 C 14.773438 15.339844 15.214844 14.898438 15.214844 14.347656 L 15.214844 12.695312 Z M 14.222656 12.695312 "/>
<path style=" stroke:none;fill-rule:nonzero;fill:rgb(25.882354%,25.882354%,25.882354%);fill-opacity:1;" d="M 10.417969 4.09375 L 12.734375 4.09375 C 13.007812 4.09375 13.230469 4.316406 13.230469 4.589844 L 13.230469 11.535156 C 13.230469 11.808594 13.007812 12.03125 12.734375 12.03125 L 10.417969 12.03125 C 10.144531 12.03125 9.921875 11.808594 9.921875 11.535156 L 9.921875 4.589844 C 9.921875 4.316406 10.144531 4.09375 10.417969 4.09375 Z M 10.417969 4.09375 "/>
<path style=" stroke:none;fill-rule:nonzero;fill:rgb(25.882354%,25.882354%,25.882354%);fill-opacity:1;" d="M 2.480469 6.078125 L 4.796875 6.078125 C 5.070312 6.078125 5.292969 6.300781 5.292969 6.574219 L 5.292969 9.550781 C 5.292969 9.824219 5.070312 10.046875 4.796875 10.046875 L 2.480469 10.046875 C 2.207031 10.046875 1.984375 9.824219 1.984375 9.550781 L 1.984375 6.574219 C 1.984375 6.300781 2.207031 6.078125 2.480469 6.078125 Z M 2.480469 6.078125 "/>
<path style=" stroke:none;fill-rule:evenodd;fill:rgb(14.901961%,77.64706%,85.490197%);fill-opacity:1;" d="M 6.449219 5.753906 C 6.265625 5.753906 6.121094 5.902344 6.121094 6.085938 L 6.121094 10.054688 C 6.121094 10.304688 6.386719 10.464844 6.609375 10.34375 L 8.929688 8.359375 C 9.179688 8.152344 9.179688 7.988281 8.929688 7.78125 L 6.609375 5.796875 C 6.558594 5.769531 6.503906 5.753906 6.449219 5.753906 Z M 6.449219 5.753906 "/>
</g>
</svg>

<svg xmlns="http://www.w3.org/2000/svg" width="16pt" height="16pt" viewBox="0 0 16 16"><path d="M1.652.785a.994.994 0 0 0-.992.992v1.657h.992V2.44c0-.367.297-.664.664-.664h.993V.785zm10.918 0v.992h.992c.364 0 .66.297.66.664v.993h.993V1.777a.991.991 0 0 0-.992-.992zM.66 12.695v1.653c0 .55.445.992.992.992H3.31v-.992h-.993a.663.663 0 0 1-.664-.66v-.993zm13.563 0v.992c0 .364-.297.66-.66.66h-.993v.993h1.653c.55 0 .992-.442.992-.992v-1.653zm0 0" fill="#78909c"/><path d="M10.418 4.094h2.316c.274 0 .496.222.496.496v6.945a.497.497 0 0 1-.496.496h-2.316a.497.497 0 0 1-.496-.496V4.59c0-.274.223-.496.496-.496zm0 0M2.48 6.078h2.317c.273 0 .496.223.496.496v2.977a.497.497 0 0 1-.496.496H2.48a.497.497 0 0 1-.496-.496V6.574c0-.273.223-.496.496-.496zm0 0" fill="#424242"/><path d="M6.45 5.754a.328.328 0 0 0-.329.332v3.969c0 .25.266.41.488.289l2.32-1.985c.25-.207.25-.37 0-.578L6.61 5.797a.34.34 0 0 0-.16-.043zm0 0" fill-rule="evenodd" fill="#26c6da"/></svg>
